libs/shared/images/icons-sharp-light/rectangle-history-circle-plus.svg

<svg xmlns="http://www.w3.org/2000/svg" viewBox="0 0 640 512"><path d="M480 160v32.7c5.3-.5 10.6-.7 16-.7s10.7 .2 16 .7V160 128H480L32 128H0v32V480v32H32l362.8 0c-12.9-9.1-24.5-19.9-34.6-32L32 480l0-320 448 0zM464 64L48 64V96l416 0V64zM416 0H96V32l320 0V0zM384 368a112 112 0 1 1 224 0 112 112 0 1 1 -224 0zm256 0a144 144 0 1 0 -288 0 144 144 0 1 0 288 0zM512 304V288H480v16 48H432 416v32h16 48v48 16h32V432 384h48 16V352H560 512V304z"/></svg>

<svg xmlns="http://www.w3.org/2000/svg" viewBox="0 0 640 512"><defs><style>.fa-secondary{opacity:.4}</style></defs><path class="fa-secondary" d="M0 160L0 512l394.8 0C349.5 480.1 320 427.5 320 368c0-97.2 78.8-176 176-176c5.4 0 10.7 .2 16 .7l0-32.7L0 160zM48 80l0 48 416 0 0-48L48 80zM96 0l0 48 320 0 0-48L96 0z"/><path class="fa-primary" d="M352 368a144 144 0 1 1 288 0 144 144 0 1 1 -288 0zm160-80l-32 0 0 16 0 48-48 0-16 0 0 32 16 0 48 0 0 48 0 16 32 0 0-16 0-48 48 0 16 0 0-32-16 0-48 0 0-48 0-16z"/></svg>
